icons/actions/symbolic/image-denoise-symbolic.svg

<svg xmlns="http://www.w3.org/2000/svg" width="16" height="16"><path d="M1 1h2v2H1zM3 1h2v2H3zM5 1h2v2H5zM5 3h2v2H5zM3 5h2v2H3zM1 7h2v2H1zM3 9h2v2H3zM5 7h2v2H5zM7 5h2v2H7zM9 5h2v2H9zM9 1h2v2H9zM11 3h2v2h-2zM11 9h2v2h-2zM7 11h2v2H7zM9 13h2v2H9zM3 13h2v2H3zM13 11h2v2h-2zM13 13h2v2h-2z" fill="#363636"/><path d="M13 13h2v2h-2z" fill="#363636"/></svg>

<svg xmlns="http://www.w3.org/2000/svg" width="16" height="16" version="1.1">
 <defs>
   <style id="current-color-scheme" type="text/css">
   .ColorScheme-Text { color: #FF1493; } .ColorScheme-Highlight { color: #1AD6AB; }
  </style>
  <linearGradient id="arrongin" x1="0%" x2="0%" y1="0%" y2="100%">
   <stop offset="0%"    stop-color= "#dd9b44" stop-opacity="1"/>
   <stop offset="100%"  stop-color= "#ad6c16" stop-opacity="1"/>
  </linearGradient>
  <linearGradient id="aurora" x1="0%" x2="0%" y1="0%" y2="100%">
   <stop offset="0%"    stop-color= "#09D4DF" stop-opacity="1"/>
   <stop offset="100%"  stop-color= "#9269F4" stop-opacity="1"/>
  </linearGradient> 
  <linearGradient id="cyberblue" x1="0%" x2="0%" y1="0%" y2="100%">
   <stop offset="0%"    stop-color= "#07B3FF" stop-opacity="1"/>
   <stop offset="100%"  stop-color= "#007DE8" stop-opacity="1"/>
  </linearGradient>
  <linearGradient id="cyberneon" x1="0%" x2="0%" y1="0%" y2="100%">
    <stop offset="0%"   stop-color= "#0abdc6" stop-opacity="1"/>
    <stop offset="100%" stop-color= "#ea00d9" stop-opacity="1"/>
  </linearGradient>
  <linearGradient id="fitdance" x1="0%" x2="0%" y1="0%" y2="100%">
   <stop offset="0%"    stop-color= "#1AD6AB" stop-opacity="1"/>
   <stop offset="100%"  stop-color= "#329DB6" stop-opacity="1"/>
  </linearGradient>
  <linearGradient id="oomox" x1="0%" x2="0%" y1="0%" y2="100%">
   <stop offset="0%"    stop-color= "#efefe7" stop-opacity="1"/>
   <stop offset="100%"  stop-color= "#8f8f8b" stop-opacity="1"/>
  </linearGradient>
  <linearGradient id="rainblue" x1="0%" x2="0%" y1="0%" y2="100%">
   <stop offset="0%"    stop-color= "#00F260" stop-opacity="1"/>
   <stop offset="100%"  stop-color= "#0575E6" stop-opacity="1"/>
  </linearGradient>
  <linearGradient id="redcarbon" x1="0%" x2="0%" y1="0%" y2="100%">
   <stop offset="0%"    stop-color= "#FF6D57" stop-opacity="1"/>
   <stop offset="50%"   stop-color= "#FF5160" stop-opacity="1"/>
   <stop offset="100%"  stop-color= "#F50F22" stop-opacity="1"/>
  </linearGradient>
  <linearGradient id="sunrise" x1="0%" x2="0%" y1="0%" y2="100%">
   <stop offset="0%"    stop-color= "#FF8501" stop-opacity="1"/>
   <stop offset="100%"  stop-color= "#FFCB01" stop-opacity="1"/>
  </linearGradient>
  <linearGradient id="telinkrin" x1="0%" x2="0%" y1="0%" y2="100%">
   <stop offset="0%"    stop-color= "#b2ced6" stop-opacity="1"/>
   <stop offset="100%"  stop-color= "#6da5b7" stop-opacity="1"/>
  </linearGradient>
  <linearGradient id="60spsycho" x1="0%" x2="0%" y1="0%" y2="100%">
   <stop offset="0%"    stop-color= "#df5940" stop-opacity="1"/>
   <stop offset="25%"   stop-color= "#d8d15f" stop-opacity="1"/>
   <stop offset="50%"   stop-color= "#e9882a" stop-opacity="1"/>
   <stop offset="100%"  stop-color= "#279362" stop-opacity="1"/>
  </linearGradient>
  <linearGradient id="90ssummer" x1="0%" x2="0%" y1="0%" y2="100%">
   <stop offset="0%"    stop-color= "#f618c7" stop-opacity="1"/>
   <stop offset="20%"   stop-color= "#94ffab" stop-opacity="1"/>
   <stop offset="50%"   stop-color= "#fbfd54" stop-opacity="1"/>
   <stop offset="100%"  stop-color= "#0f83ae" stop-opacity="1"/>
  </linearGradient>
 </defs>
 <path fill="currentColor" class="ColorScheme-Text" d="M 1,1 H 3 V 3 H 1 Z"/>
 <path fill="currentColor" class="ColorScheme-Text" d="M 3,1 H 5 V 3 H 3 Z"/>
 <path fill="currentColor" class="ColorScheme-Text" d="M 5,1 H 7 V 3 H 5 Z"/>
 <path fill="currentColor" class="ColorScheme-Text" d="M 5,3 H 7 V 5 H 5 Z"/>
 <path fill="currentColor" class="ColorScheme-Text" d="M 3,5 H 5 V 7 H 3 Z"/>
 <path fill="currentColor" class="ColorScheme-Text" d="M 1,7 H 3 V 9 H 1 Z"/>
 <path fill="currentColor" class="ColorScheme-Text" d="M 3,9 H 5 V 11 H 3 Z"/>
 <path fill="currentColor" class="ColorScheme-Text" d="M 5,7 H 7 V 9 H 5 Z"/>
 <path fill="currentColor" class="ColorScheme-Text" d="M 7,5 H 9 V 7 H 7 Z"/>
 <path fill="currentColor" class="ColorScheme-Text" d="M 9,5 H 11 V 7 H 9 Z"/>
 <path fill="currentColor" class="ColorScheme-Text" d="M 9,1 H 11 V 3 H 9 Z"/>
 <path fill="currentColor" class="ColorScheme-Text" d="M 11,3 H 13 V 5 H 11 Z"/>
 <path fill="currentColor" class="ColorScheme-Text" d="M 11,9 H 13 V 11 H 11 Z"/>
 <path fill="currentColor" class="ColorScheme-Text" d="M 7,11 H 9 V 13 H 7 Z"/>
 <path fill="currentColor" class="ColorScheme-Text" d="M 9,13 H 11 V 15 H 9 Z"/>
 <path fill="currentColor" class="ColorScheme-Text" d="M 3,13 H 5 V 15 H 3 Z"/>
 <path fill="currentColor" class="ColorScheme-Text" d="M 13,11 H 15 V 13 H 13 Z"/>
 <path fill="currentColor" class="ColorScheme-Text" d="M 13,13 H 15 V 15 H 13 Z"/>
 <path fill="currentColor" class="ColorScheme-Text" d="M 13,13 H 15 V 15 H 13 Z"/>
</svg>
